<?xml version="1.0" encoding="UTF-8"?>
<map version="1.9" tiledversion="1.9.2" orientation="orthogonal" renderorder="right-down" width="32" height="32" tilewidth="256" tileheight="256" infinite="0" nextlayerid="9" nextobjectid="56">
 <tileset firstgid="1" source="textures.tsx"/>
 <layer id="2" name="floors" width="32" height="32" visible="0" locked="1">
  <data encoding="csv">
5,5,5,5,5,5,5,5,5,5,5,5,5,5,5,5,0,0,0,0,0,0,0,0,0,0,0,0,0,0,0,0,
5,5,5,5,5,5,5,5,5,5,5,5,5,5,5,5,0,5,5,5,5,5,5,5,5,5,5,5,5,5,5,0,
5,5,5,5,5,5,5,5,5,5,5,5,5,5,5,5,5,5,5,5,5,5,5,5,5,5,5,5,5,5,5,0,
5,5,5,5,5,5,5,5,5,5,5,5,5,5,5,5,0,5,5,5,5,5,5,5,5,5,5,5,5,5,5,0,
5,5,5,5,5,5,5,5,5,5,5,5,5,5,5,5,0,5,5,5,5,5,5,5,5,5,5,5,5,5,5,0,
5,5,5,5,5,5,5,5,5,5,5,5,5,5,5,5,0,5,5,5,5,5,5,5,5,5,5,5,5,5,5,0,
5,5,5,5,5,5,5,5,5,5,5,5,5,5,5,5,0,5,5,5,5,5,5,5,5,5,5,5,5,5,5,0,
5,5,5,5,5,5,5,5,5,5,5,5,5,5,5,5,0,5,5,5,5,5,5,5,5,5,5,5,5,5,5,0,
5,5,5,5,5,5,5,5,5,5,5,5,5,5,5,5,0,5,5,5,5,5,5,5,5,5,5,5,5,5,5,0,
5,5,5,5,5,5,5,5,5,5,5,5,5,5,5,5,0,5,5,5,5,5,5,5,5,5,5,5,5,5,5,0,
5,5,5,5,5,5,5,5,5,5,5,5,5,5,5,5,0,5,5,5,5,5,5,5,5,5,5,5,5,5,5,0,
5,5,5,5,5,5,5,5,5,5,5,5,5,5,5,5,0,5,5,5,5,5,5,5,5,5,5,5,5,5,5,0,
5,5,5,5,5,5,5,5,5,5,5,5,5,5,5,5,0,5,5,5,5,5,5,5,5,5,5,5,5,5,5,0,
5,5,5,5,5,5,5,5,5,5,5,5,5,5,5,5,0,5,5,5,5,5,5,5,5,5,5,5,5,5,5,0,
5,5,5,5,5,5,5,5,5,5,5,5,5,5,5,5,0,5,5,5,5,5,5,5,5,5,5,5,5,5,5,0,
5,5,5,5,5,5,5,5,5,5,5,5,5,5,5,5,0,5,5,5,5,5,5,5,5,5,5,5,5,5,5,0,
0,0,0,0,0,0,0,0,5,0,0,0,0,0,0,0,0,0,0,0,0,0,0,5,0,0,0,0,0,0,0,0,
0,5,5,5,5,5,5,5,5,5,5,5,5,5,5,0,0,0,0,0,0,0,0,5,0,0,0,0,0,0,0,0,
0,5,5,5,5,5,5,5,5,5,5,5,5,5,5,0,0,5,5,5,5,5,5,5,5,5,5,5,5,5,5,0,
0,5,5,5,5,5,5,5,5,5,5,5,5,5,5,0,0,5,5,5,5,5,5,5,5,5,5,5,5,5,5,0,
0,5,5,5,5,5,5,5,5,5,5,5,5,5,5,0,0,5,5,5,5,5,5,5,5,5,5,5,5,5,5,0,
0,5,5,5,5,5,5,5,5,5,5,5,5,5,5,0,0,5,5,5,5,5,5,5,5,5,5,5,5,5,5,0,
0,5,5,5,5,5,5,5,5,5,5,5,5,5,5,0,0,5,5,5,5,5,5,5,5,5,5,5,5,5,5,0,
0,5,5,5,5,5,5,5,5,5,5,5,5,5,5,5,5,5,5,5,5,5,5,5,5,5,5,5,5,5,5,0,
0,5,5,5,5,5,5,5,5,5,5,5,5,5,5,0,0,5,5,5,5,5,5,5,5,5,5,5,5,5,5,0,
0,5,5,5,5,5,5,5,5,5,5,5,5,5,5,0,0,5,5,5,5,5,5,5,5,5,5,5,5,5,5,0,
0,5,5,5,5,5,5,5,5,5,5,5,5,5,5,0,0,5,5,5,5,5,5,5,5,5,5,5,5,5,5,0,
0,5,5,5,5,5,5,5,5,5,5,5,5,5,5,0,0,5,5,5,5,5,5,5,5,5,5,5,5,5,5,0,
0,5,5,5,5,5,5,5,5,5,5,5,5,5,5,0,0,5,5,5,5,5,5,5,5,5,5,5,5,5,5,0,
0,5,5,5,5,5,5,5,5,5,5,5,5,5,5,0,0,5,5,5,5,5,5,5,5,5,5,5,5,5,5,0,
0,5,5,5,5,5,5,5,5,5,5,5,5,5,5,0,0,5,5,5,5,5,5,5,5,5,5,5,5,5,5,0,
0,0,0,0,0,0,0,0,0,0,0,0,0,0,0,0,0,0,0,0,0,0,0,0,0,0,0,0,0,0,0,0
</data>
 </layer>
 <layer id="3" name="ceilings" width="32" height="32" visible="0" locked="1">
  <data encoding="csv">
5,5,5,5,5,5,5,5,5,5,5,5,5,5,5,5,0,0,0,0,0,0,0,0,0,0,0,0,0,0,0,0,
5,5,5,5,5,5,5,5,5,5,5,5,5,5,5,5,0,5,5,5,5,5,5,5,5,5,5,5,5,5,5,0,
5,5,5,5,5,5,5,6,6,5,5,5,6,6,5,5,5,5,5,5,5,5,5,5,5,5,5,5,5,5,5,0,
5,5,6,6,5,5,5,5,5,5,5,5,5,5,5,5,0,5,5,5,5,5,5,5,5,5,5,5,5,5,5,0,
5,5,6,6,5,5,5,6,6,5,5,5,5,5,5,5,0,5,5,5,6,6,5,5,5,5,6,6,5,5,5,0,
5,5,5,5,5,5,5,5,5,5,5,5,5,5,5,5,0,5,5,5,5,5,5,5,5,5,5,5,5,5,5,0,
5,5,5,5,5,5,5,5,5,5,5,5,6,6,5,5,0,5,5,5,5,5,5,5,5,5,5,5,5,5,5,0,
5,5,5,5,5,5,5,5,5,5,5,5,5,5,5,5,0,5,5,5,5,5,5,5,5,5,5,5,5,5,5,0,
5,5,6,5,5,5,5,6,5,6,5,5,6,6,5,5,0,5,5,5,5,5,5,6,6,5,5,5,5,5,5,0,
5,5,5,5,5,5,5,5,5,5,5,5,5,5,5,5,0,5,5,5,5,5,5,5,5,5,5,5,5,5,5,0,
5,5,6,5,5,5,5,5,5,5,5,5,5,5,5,5,0,5,5,5,5,5,5,5,5,5,5,5,5,5,5,0,
5,5,5,5,5,5,5,5,5,5,5,5,5,5,5,5,0,5,5,5,5,5,5,5,5,5,5,5,5,5,5,0,
5,5,6,5,5,5,5,6,6,5,5,5,6,6,5,5,0,5,5,5,6,6,5,5,5,5,6,6,5,5,5,0,
5,5,5,5,5,5,5,5,5,5,5,5,5,5,5,5,0,5,5,5,5,5,5,5,5,5,5,5,5,5,5,0,
5,5,6,5,5,5,5,6,6,5,5,5,6,6,5,5,0,5,5,5,5,5,5,5,5,5,5,5,5,5,5,0,
5,5,5,5,5,5,5,5,5,5,5,5,5,5,5,5,0,5,5,5,5,5,5,5,5,5,5,5,5,5,5,0,
0,0,0,0,0,0,0,0,5,0,0,0,0,0,0,0,0,0,0,0,0,0,0,5,0,0,0,0,0,0,0,0,
0,5,5,5,5,5,5,5,5,5,5,5,5,5,5,0,0,0,0,0,0,0,0,5,0,0,0,0,0,0,0,0,
0,5,6,6,5,5,5,5,5,5,5,6,6,5,5,0,0,5,5,5,5,5,5,5,5,5,5,5,5,5,5,0,
0,5,5,5,5,5,6,6,5,5,5,5,5,5,5,0,0,5,5,5,5,5,5,5,5,5,5,5,5,5,5,0,
0,5,5,5,5,5,5,5,5,5,5,5,5,5,5,0,0,5,5,6,6,5,5,6,6,5,5,6,6,5,5,0,
0,5,6,6,5,5,5,5,5,5,5,6,6,5,5,0,0,5,5,5,5,5,5,5,5,5,5,5,5,5,5,0,
0,5,5,5,5,5,6,6,5,5,5,5,5,5,5,0,0,5,5,5,5,5,5,5,5,5,5,5,5,5,5,0,
0,5,5,5,5,5,5,5,5,5,5,6,6,5,5,5,5,5,5,5,5,5,5,5,5,5,5,5,5,5,5,0,
0,5,6,6,5,5,5,5,5,5,5,5,5,5,5,0,0,5,5,6,6,6,6,6,6,6,6,6,6,5,5,0,
0,5,5,5,5,5,6,6,5,5,5,6,6,5,5,0,0,5,5,5,5,5,5,5,5,5,5,5,5,5,5,0,
0,5,5,5,5,5,5,5,5,5,5,5,5,5,5,0,0,5,5,5,5,5,5,5,5,5,5,5,5,5,5,0,
0,5,6,6,5,5,5,5,5,5,5,5,5,5,5,0,0,5,5,5,5,5,5,5,5,5,5,5,5,5,5,0,
0,5,5,5,5,5,5,5,5,5,5,6,6,5,5,0,0,5,5,6,6,5,5,6,6,5,5,6,6,5,5,0,
0,5,5,5,5,5,6,6,5,5,5,5,5,5,5,0,0,5,5,5,5,5,5,5,5,5,5,5,5,5,5,0,
0,5,5,5,5,5,5,5,5,5,5,5,5,5,5,0,0,5,5,5,5,5,5,5,5,5,5,5,5,5,5,0,
0,0,0,0,0,0,0,0,0,0,0,0,0,0,0,0,0,0,0,0,0,0,0,0,0,0,0,0,0,0,0,0
</data>
 </layer>
 <layer id="1" name="walls" width="32" height="32">
  <data encoding="csv">
2,2,2,2,2,2,2,2,2,2,2,2,2,2,2,2,1,1,1,1,1,1,1,1,1,1,1,1,1,1,1,1,
2,0,0,0,0,0,0,0,0,0,0,0,0,0,0,2,1,0,0,0,0,0,0,0,0,0,0,0,0,0,0,1,
2,0,0,0,0,0,0,0,0,0,0,0,0,0,0,0,0,0,0,0,0,0,0,0,0,0,0,0,0,0,0,1,
2,0,0,0,0,0,0,0,0,0,0,0,0,0,0,2,1,0,0,0,0,0,0,0,0,0,0,0,0,0,0,1,
2,0,0,0,0,0,0,0,0,0,0,0,0,0,0,2,1,0,0,0,0,0,0,0,0,0,0,0,0,0,0,1,
2,0,0,0,0,0,0,0,0,0,0,0,0,0,0,2,1,0,0,0,0,0,0,0,0,0,0,0,0,0,0,1,
2,0,0,0,0,0,0,0,0,0,0,0,0,0,0,2,1,0,0,0,0,0,0,0,0,0,0,0,0,0,0,1,
2,0,0,0,0,0,0,0,0,0,0,0,0,0,0,2,1,0,0,0,0,0,0,10,0,0,0,0,0,0,0,1,
2,0,0,0,0,0,0,0,0,0,0,0,0,0,0,2,1,0,0,0,0,0,0,0,0,0,0,0,0,0,0,1,
2,0,0,0,0,0,0,0,0,0,0,0,0,0,0,2,1,0,0,0,0,0,0,0,0,0,0,0,0,0,0,1,
2,0,0,0,0,0,0,0,0,0,0,0,0,0,0,2,1,0,0,0,0,0,0,0,0,0,0,0,0,0,0,1,
2,0,0,0,0,0,0,0,0,0,0,0,0,0,0,2,1,0,0,0,0,0,0,0,0,0,0,0,0,0,0,1,
2,0,0,0,0,0,0,0,0,0,0,0,0,0,0,2,1,0,0,0,0,0,0,0,0,0,0,0,0,0,0,1,
2,0,0,0,0,0,0,0,0,0,0,0,0,0,0,2,1,0,0,0,0,0,0,0,0,0,0,0,0,0,0,1,
2,0,0,0,0,0,0,0,0,0,0,0,0,0,0,2,1,0,0,0,0,0,0,0,0,0,0,0,0,0,0,1,
2,2,2,2,2,2,2,2,0,2,2,2,2,2,2,2,1,0,0,0,0,0,0,0,0,0,0,0,0,0,0,1,
3,3,3,3,3,3,3,3,0,3,3,3,3,3,3,3,1,1,1,1,1,1,1,0,1,1,1,1,1,1,1,1,
3,0,0,0,0,0,0,0,0,0,0,0,0,0,0,3,4,4,4,4,4,4,4,0,4,4,4,4,4,4,4,4,
3,0,0,0,0,0,0,0,0,0,0,0,0,0,0,3,4,0,0,0,0,0,0,0,0,0,0,0,0,0,0,4,
3,0,0,0,0,0,0,0,0,0,0,0,0,0,0,3,4,0,0,0,0,0,0,0,0,0,0,0,0,0,0,4,
3,0,0,0,0,0,0,0,0,0,0,0,0,0,0,3,4,0,0,0,0,0,0,0,0,0,0,0,0,0,0,4,
3,0,0,0,0,0,0,0,0,0,0,0,0,0,0,3,4,0,0,0,0,0,0,0,0,0,0,0,0,0,0,4,
3,0,0,0,0,0,0,0,0,0,0,0,0,0,0,3,4,0,0,0,0,0,0,0,0,0,0,0,0,0,0,4,
3,0,0,0,0,0,0,0,0,0,0,0,0,0,0,0,0,0,0,0,0,0,0,11,0,0,0,0,0,0,0,4,
3,0,0,0,0,0,0,0,0,0,0,0,0,0,0,3,4,0,0,0,0,0,0,0,0,0,0,0,0,0,0,4,
3,0,0,0,0,0,0,0,0,0,0,0,0,0,0,3,4,0,0,0,0,0,0,0,0,0,0,0,0,0,0,4,
3,0,0,0,0,0,0,0,0,0,0,0,0,0,0,3,4,0,0,0,0,0,0,0,0,0,0,0,0,0,0,4,
3,0,0,0,0,0,0,0,0,0,0,0,0,0,0,3,4,0,0,0,0,0,0,0,0,0,0,0,0,0,0,4,
3,0,0,0,0,0,0,0,0,0,0,0,0,0,0,3,4,0,0,0,0,0,0,0,0,0,0,0,0,0,0,4,
3,0,0,0,0,0,0,0,0,0,0,0,0,0,0,3,4,0,0,0,0,0,0,0,0,0,0,0,0,0,0,4,
3,0,0,0,0,0,0,0,0,0,0,0,0,0,0,3,4,0,0,0,0,0,0,0,0,0,0,0,0,0,0,4,
3,3,3,3,3,3,3,3,3,3,3,3,3,3,3,3,4,4,4,4,4,4,4,4,4,4,4,4,4,4,4,4
</data>
 </layer>
 <objectgroup id="5" name="player" visible="0" locked="1">
  <object id="8" name="PLAYER" x="2152" y="2163.06" width="80" height="17.875">
   <text wrap="1">Hello World</text>
  </object>
 </objectgroup>
 <objectgroup id="6" name="items" visible="0" locked="1">
  <object id="10" gid="17" x="3584" y="512" width="256" height="256"/>
  <object id="11" gid="14" x="1536" y="1792" width="256" height="256"/>
  <object id="12" gid="14" x="1024" y="2816" width="256" height="256"/>
  <object id="13" gid="14" x="3584" y="3840" width="256" height="256"/>
  <object id="14" gid="13" x="1024" y="3840" width="256" height="256"/>
  <object id="15" gid="13" x="2048" y="1536" width="256" height="256"/>
  <object id="52" gid="16" x="3584" y="3328" width="256" height="256"/>
  <object id="53" gid="14" x="2816" y="2560" width="256" height="256"/>
  <object id="54" gid="14" x="2304" y="512" width="256" height="256"/>
  <object id="55" gid="13" x="1536" y="2560" width="256" height="256"/>
 </objectgroup>
 <objectgroup id="7" name="npc" locked="1">
  <object id="16" gid="68" x="256" y="2048" width="256" height="256"/>
  <object id="17" gid="68" x="512" y="2560" width="256" height="256"/>
  <object id="18" gid="68" x="256" y="2816" width="256" height="256"/>
  <object id="19" gid="68" x="768" y="3072" width="256" height="256"/>
  <object id="20" gid="68" x="256" y="3328" width="256" height="256"/>
  <object id="21" gid="68" x="768" y="3584" width="256" height="256"/>
  <object id="22" gid="68" x="256" y="3840" width="256" height="256"/>
  <object id="34" gid="57" x="3328" y="512" width="256" height="256"/>
  <object id="35" gid="57" x="1024" y="1024" width="256" height="256"/>
  <object id="36" gid="57" x="512" y="512" width="256" height="256"/>
  <object id="37" gid="68" x="1792" y="512" width="256" height="256"/>
  <object id="38" gid="68" x="1536" y="1024" width="256" height="256"/>
  <object id="39" gid="68" x="2048" y="1280" width="256" height="256"/>
  <object id="40" gid="68" x="2048" y="768" width="256" height="256"/>
  <object id="42" gid="46" x="2304" y="3072" width="256" height="256"/>
  <object id="43" gid="46" x="2304" y="3840" width="256" height="256"/>
  <object id="44" gid="46" x="1792" y="3072" width="256" height="256"/>
  <object id="45" gid="46" x="3328" y="3072" width="256" height="256"/>
  <object id="46" gid="46" x="2816" y="3072" width="256" height="256"/>
  <object id="47" gid="46" x="3584" y="3584" width="256" height="256"/>
  <object id="48" gid="46" x="2816" y="1536" width="256" height="256"/>
  <object id="49" gid="46" x="3584" y="1536" width="256" height="256"/>
  <object id="50" gid="46" x="3328" y="2048" width="256" height="256"/>
  <object id="51" gid="46" x="3072" y="2048" width="256" height="256"/>
 </objectgroup>
 <objectgroup id="8" name="doors" visible="0" locked="1">
  <object id="1" gid="7" x="2560" y="3584" width="256" height="256"/>
  <object id="2" gid="7" x="3072" y="2816" width="256" height="256"/>
  <object id="3" gid="7" x="1280" y="3328" width="256" height="256"/>
  <object id="4" gid="7" x="1024" y="2304" width="256" height="256"/>
  <object id="5" gid="7" x="1280" y="1024" width="256" height="256"/>
  <object id="6" gid="7" x="2560" y="768" width="256" height="256"/>
  <object id="7" gid="7" x="3328" y="1280" width="256" height="256"/>
  <object id="41" gid="9" x="256" y="768" width="256" height="256"/>
 </objectgroup>
</map>
